X: 23558
T: Light And Airy
R: slip jig
M: 9/8
K: Amixolydian
c2A A3 c2A|Bcd ecA Bcd|c2A A3 c2A|B2G G2A Bcd|
c2A A3 c2A|Bcd ecA Bcd|c2A A3 c2A|B2G G2A Bcd||
e3 ^d2e c2A|Bcd ecA Bcd|e3 ^d2e c2A|B2G G2A Bcd|
e3 ^d2e c2A|Bcd ecA Bcd|e3 f3 g3|B2G G2A Bcd||

